X:1
T:Fifteen Men on a Dead Man's Chest
K:Cm
M:4/4
L:1/8
|C2D2E2FF | ^F2G2A2G2 |
c2B2A2GG | FFE2D2G2 |
C2DDEEF2 | ^F2GGA2G2 |
c2c2c2c | decd2c2||
